img/sprite/letter.svg

<svg width="24" height="24" viewBox="0 0 24 24" fill="none" xmlns="http://www.w3.org/2000/svg">
<path fill-rule="evenodd" clip-rule="evenodd" d="M16.6589 2C19.9889 2 22.4999 4.717 22.4999 8.32V15.188C22.4999 17.032 21.8479 18.698 20.6629 19.88C19.5999 20.939 18.2209 21.5 16.6749 21.5H6.82188C5.27888 21.5 3.90088 20.94 2.83688 19.88C1.65188 18.698 0.999878 17.032 0.999878 15.188V8.32C0.999878 4.717 3.51088 2 6.84088 2H16.6589ZM16.6589 3.5H6.84088C4.32588 3.5 2.49988 5.527 2.49988 8.32V15.188C2.49988 16.631 2.99588 17.92 3.89588 18.817C4.67188 19.592 5.68488 20 6.82488 20H16.6589C16.6609 19.998 16.6689 20 16.6749 20C17.8159 20 18.8279 19.592 19.6039 18.817C20.5049 17.92 20.9999 16.631 20.9999 15.188V8.32C20.9999 5.527 19.1739 3.5 16.6589 3.5ZM18.2349 8.1288C18.4959 8.4498 18.4469 8.9218 18.1259 9.1838L13.6819 12.7958C13.1199 13.2418 12.4479 13.4648 11.7769 13.4648C11.1079 13.4648 10.4409 13.2438 9.88288 12.8018L5.39788 9.1858C5.07488 8.9258 5.02488 8.4528 5.28388 8.1308C5.54488 7.8098 6.01688 7.7588 6.33888 8.0178L10.8199 11.6298C11.3829 12.0758 12.1759 12.0758 12.7429 11.6258L17.1789 8.0198C17.5009 7.7568 17.9729 7.8068 18.2349 8.1288Z" fill="white"/>
</svg>

<svg width="24" height="24" fill="none" xmlns="http://www.w3.org/2000/svg"><path fill-rule="evenodd" clip-rule="evenodd" d="M16.659 2c3.33 0 5.84 2.717 5.84 6.32v6.868c0 1.844-.651 3.51-1.836 4.692-1.063 1.059-2.442 1.62-3.988 1.62H6.822c-1.543 0-2.921-.56-3.985-1.62C1.652 18.698 1 17.032 1 15.188V8.32C1 4.717 3.51 2 6.84 2h9.819Zm0 1.5H6.84C4.326 3.5 2.5 5.527 2.5 8.32v6.868c0 1.443.496 2.732 1.396 3.629C4.672 19.592 5.685 20 6.825 20h9.834c.002-.002.01 0 .016 0 1.14 0 2.153-.408 2.929-1.183.9-.897 1.396-2.186 1.396-3.629V8.32c0-2.793-1.826-4.82-4.341-4.82Zm1.576 4.629a.75.75 0 0 1-.11 1.055l-4.443 3.612a3.042 3.042 0 0 1-3.799.006L5.398 9.186a.751.751 0 0 1 .94-1.168l4.482 3.612a1.544 1.544 0 0 0 1.923-.004l4.436-3.606a.75.75 0 0 1 1.056.109Z" fill="#fff"/></svg>
